X: 2162
T: Polska efter Johan August Ericsson
S: efter Johan August Ericsson
B: [[http://www.smus.se/earkiv/fmk/browselarge.php?lang=sw&katalogid=M+19&bildnr=00022|SMUS - katalog M19 bild 22]] (nr 66)
B: [[Notböcker/Johan August Ericssons notbok]]
O: Södermanland
R: Polska
Z: Nils L, 2011-11-18
M: 3/4
L: 1/16
K: D
D2EF E2FG F2GA | A2G2 G2F2 F2E2 | d2ef e2fg f2ga | a2g2 g2f2 f2e2 |
f2ga e2fg d2ef | A2ce c4 d4 :: dfaf dfaf dfaf | A2a2 a2g2 g2f2 |
(:musicend:)
(:music:)
